X:0
M:4/4
L:1/4
Q:120
K:C
V:1
c d e f |
w: Al-le mei-ne
g2 g2 |
w: Ent-chen\n
a a a a |
w: schwim-men auf dem
g3 x |
w: Seeeeeeee\n
a a a a |
w: schwim-men auf dem
g3 x |
w: Seeeeeeee\n
f f f f |
w: Köpf-chen in das
e2 e2 |
w: Was-ser\n
g g g g |
w: Schwänz-chen in die
c4 |
w: Höh'!\n
